X: 79
T:Tin Gee Gee
% Nottingham Music Database
S:via PR
M:2/4
L:1/4
K:D
f/4g/4|"D"a/2d/2 d/4c/4d/4f/4|"Em"e/2B/2 B3/4B/4|"A"c/2c/4c/4 B/2A/2|
"D"a "A7"a/4g/4f/4g/4|"D"a/2d/2 d/4c/4d/4f/4|"Em"e/2B/2 B3/4B/4|\
"A7"c/2c/4c/4 B/2A/2|"D"d3/2::
c/4d/4|"A"e/2e/4e/4 e/2d/4e/4|"D"f/2f/4f/4 f/2e/4f/4|"Em"g/2f/2 "E7"e/2d/2|
"A"a "A7"a/4g/4f/4g/4|"D"a/2d/2 d/4c/4d/4f/4|"Em"e/2B/2 B3/4B/4|\
"D"A/2a/2 "A7"g/4f/4e/2|"D"d3/2:|


